packages/tokens/icons/oneToOnePersonalization/size24Px.svg

<svg viewBox="0 0 24 24" fill="none" xmlns="http://www.w3.org/2000/svg" width="1em" height="1em"><mask id="path-1-inside-1_1748_7929" fill="currentColor"><path fill-rule="evenodd" clip-rule="evenodd" d="M10 13.9583C10 14.3153 9.80335 14.6377 9.52319 14.8589C8.59545 15.5914 8 16.7262 8 18C8 20.2091 9.79086 22 12 22C14.2091 22 16 20.2091 16 18C16 16.7262 15.4046 15.5914 14.4768 14.8589C14.1967 14.6377 14 14.3153 14 13.9583V5C14 3.89543 13.1046 3 12 3C10.8954 3 10 3.89543 10 5V13.9583Z"/></mask><path d="M14.4768 14.8589L13.8571 15.6437L14.4768 14.8589ZM9.52319 14.8589L8.90349 14.074L9.52319 14.8589ZM9 18C9 17.0451 9.44499 16.1948 10.1429 15.6437L8.90349 14.074C7.74591 14.988 7 16.4072 7 18H9ZM12 21C10.3431 21 9 19.6569 9 18H7C7 20.7614 9.23858 23 12 23V21ZM15 18C15 19.6569 13.6569 21 12 21V23C14.7614 23 17 20.7614 17 18H15ZM13.8571 15.6437C14.555 16.1948 15 17.0451 15 18H17C17 16.4072 16.2541 14.988 15.0965 14.074L13.8571 15.6437ZM15 13.9583V5H13V13.9583H15ZM15 5C15 3.34315 13.6569 2 12 2V4C12.5523 4 13 4.44772 13 5H15ZM12 2C10.3431 2 9 3.34315 9 5H11C11 4.44772 11.4477 4 12 4V2ZM9 5V13.9583H11V5H9ZM15.0965 14.074C15.0504 14.0376 15.0228 14.0016 15.0093 13.9771C14.997 13.9548 15 13.9495 15 13.9583H13C13 14.6944 13.4007 15.2833 13.8571 15.6437L15.0965 14.074ZM10.1429 15.6437C10.5993 15.2833 11 14.6944 11 13.9583H9C9 13.9495 9.00297 13.9548 8.9907 13.9771C8.97723 14.0016 8.94963 14.0376 8.90349 14.074L10.1429 15.6437Z" fill="currentColor" mask="url(#path-1-inside-1_1748_7929)"/><circle cx="12" cy="18" r="1.5" stroke="currentColor"/><path d="M12 16.5L12 15L12 13" stroke="currentColor" stroke-linecap="round"/><path fill-rule="evenodd" clip-rule="evenodd" d="M17 5.5C17 5.22386 17.2239 5 17.5 5H20.5C20.7761 5 21 5.22386 21 5.5C21 5.77614 20.7761 6 20.5 6H17.5C17.2239 6 17 5.77614 17 5.5ZM17 7.5C17 7.22386 17.2239 7 17.5 7H20.5C20.7761 7 21 7.22386 21 7.5C21 7.77614 20.7761 8 20.5 8H17.5C17.2239 8 17 7.77614 17 7.5ZM17.5 9C17.2239 9 17 9.22386 17 9.5C17 9.77614 17.2239 10 17.5 10H20.5C20.7761 10 21 9.77614 21 9.5C21 9.22386 20.7761 9 20.5 9H17.5ZM17 11.5C17 11.2239 17.2239 11 17.5 11H20.5C20.7761 11 21 11.2239 21 11.5C21 11.7761 20.7761 12 20.5 12H17.5C17.2239 12 17 11.7761 17 11.5ZM17.5 13C17.2239 13 17 13.2239 17 13.5C17 13.7761 17.2239 14 17.5 14H20.5C20.7761 14 21 13.7761 21 13.5C21 13.2239 20.7761 13 20.5 13H17.5Z" fill="currentColor"/><path d="M4.168 7.592C4.168 7.27467 4.20533 6.96667 4.28 6.668C4.35933 6.36933 4.47833 6.10333 4.637 5.87C4.79567 5.63667 4.99867 5.45 5.246 5.31C5.49333 5.17 5.785 5.1 6.121 5.1C6.457 5.1 6.74633 5.17 6.989 5.31C7.23633 5.45 7.43933 5.63667 7.598 5.87C7.75667 6.10333 7.87333 6.36933 7.948 6.668C8.02733 6.96667 8.067 7.27467 8.067 7.592C8.067 7.90933 8.02733 8.21733 7.948 8.516C7.87333 8.81467 7.75667 9.08067 7.598 9.314C7.43933 9.54733 7.23633 9.734 6.989 9.874C6.74633 10.014 6.457 10.084 6.121 10.084C5.78033 10.084 5.48633 10.014 5.239 9.874C4.99633 9.734 4.79567 9.54733 4.637 9.314C4.47833 9.08067 4.35933 8.81467 4.28 8.516C4.20533 8.21733 4.168 7.90933 4.168 7.592ZM5.092 7.578C5.092 7.82067 5.113 8.047 5.155 8.257C5.197 8.46233 5.26 8.642 5.344 8.796C5.428 8.94533 5.53533 9.062 5.666 9.146C5.79667 9.23 5.94833 9.272 6.121 9.272C6.29833 9.272 6.45 9.23 6.576 9.146C6.70667 9.062 6.814 8.94533 6.898 8.796C6.982 8.642 7.04267 8.46233 7.08 8.257C7.122 8.047 7.143 7.82067 7.143 7.578C7.143 7.33067 7.122 7.10433 7.08 6.899C7.04267 6.689 6.982 6.50933 6.898 6.36C6.814 6.21067 6.70667 6.094 6.576 6.01C6.45 5.926 6.29833 5.884 6.121 5.884C5.94833 5.884 5.79667 5.926 5.666 6.01C5.53533 6.094 5.428 6.21067 5.344 6.36C5.26 6.50933 5.197 6.689 5.155 6.899C5.113 7.10433 5.092 7.33067 5.092 7.578Z" fill="currentColor"/><path d="M8.75 5.5C8.75 5.36193 8.63807 5.25 8.5 5.25C8.36193 5.25 8.25 5.36193 8.25 5.5C8.25 5.63807 8.36193 5.75 8.5 5.75C8.63807 5.75 8.75 5.63807 8.75 5.5Z" stroke="currentColor" stroke-width="0.5"/></svg>

<svg xmlns="http://www.w3.org/2000/svg" fill="none" viewBox="0 0 24 24" width="1em" height="1em"><mask id="iconsOneToOnePersonalizationSize24Px__a" fill="#fff"><path fill-rule="evenodd" d="M10 13.958c0 .357-.197.68-.477.9a4 4 0 1 0 4.954 0c-.28-.22-.477-.543-.477-.9V5a2 2 0 1 0-4 0v8.958Z" clip-rule="evenodd"/></mask><path fill="currentColor" d="m14.477 14.859-.62.785.62-.785Zm-4.954 0-.62-.785.62.785ZM9 18c0-.955.445-1.805 1.143-2.356l-1.24-1.57A4.993 4.993 0 0 0 7 18h2Zm3 3a3 3 0 0 1-3-3H7a5 5 0 0 0 5 5v-2Zm3-3a3 3 0 0 1-3 3v2a5 5 0 0 0 5-5h-2Zm-1.143-2.356A2.993 2.993 0 0 1 15 18h2a4.993 4.993 0 0 0-1.903-3.926l-1.24 1.57ZM15 13.958V5h-2v8.958h2ZM15 5a3 3 0 0 0-3-3v2a1 1 0 0 1 1 1h2Zm-3-3a3 3 0 0 0-3 3h2a1 1 0 0 1 1-1V2ZM9 5v8.958h2V5H9Zm6.097 9.074a.34.34 0 0 1-.088-.097c-.012-.022-.009-.027-.009-.019h-2c0 .736.4 1.325.857 1.686l1.24-1.57Zm-4.954 1.57c.456-.36.857-.95.857-1.686H9c0-.008.003-.003-.01.02a.34.34 0 0 1-.087.096l1.24 1.57Z" mask="url(#iconsOneToOnePersonalizationSize24Px__a)"/><circle cx="12" cy="18" r="1.5" stroke="currentColor"/><path stroke="currentColor" stroke-linecap="round" d="M12 16.5V13"/><path fill="currentColor" fill-rule="evenodd" d="M17 5.5a.5.5 0 0 1 .5-.5h3a.5.5 0 0 1 0 1h-3a.5.5 0 0 1-.5-.5Zm0 2a.5.5 0 0 1 .5-.5h3a.5.5 0 0 1 0 1h-3a.5.5 0 0 1-.5-.5Zm.5 1.5a.5.5 0 0 0 0 1h3a.5.5 0 0 0 0-1h-3Zm-.5 2.5a.5.5 0 0 1 .5-.5h3a.5.5 0 0 1 0 1h-3a.5.5 0 0 1-.5-.5Zm.5 1.5a.5.5 0 0 0 0 1h3a.5.5 0 0 0 0-1h-3Z" clip-rule="evenodd"/><path fill="currentColor" d="M4.168 7.592c0-.317.037-.625.112-.924.08-.299.198-.565.357-.798.159-.233.362-.42.609-.56.247-.14.539-.21.875-.21a1.708 1.708 0 0 1 1.477.77c.159.233.275.5.35.798.08.299.119.607.119.924 0 .317-.04.625-.119.924a2.471 2.471 0 0 1-.35.798 1.708 1.708 0 0 1-1.477.77c-.34 0-.635-.07-.882-.21a1.818 1.818 0 0 1-.602-.56 2.588 2.588 0 0 1-.357-.798 3.795 3.795 0 0 1-.112-.924Zm.924-.014c0 .243.021.469.063.679.042.205.105.385.189.539.084.15.191.266.322.35a.82.82 0 0 0 .455.126.801.801 0 0 0 .455-.126c.13-.084.238-.2.322-.35.084-.154.145-.334.182-.539a3.46 3.46 0 0 0 .063-.679c0-.247-.021-.474-.063-.679a1.702 1.702 0 0 0-.182-.539.974.974 0 0 0-.322-.35.801.801 0 0 0-.455-.126.823.823 0 0 0-.455.126.974.974 0 0 0-.322.35c-.084.15-.147.329-.189.539a3.394 3.394 0 0 0-.063.679Z"/><path stroke="currentColor" stroke-width=".5" d="M8.75 5.5a.25.25 0 1 0-.5 0 .25.25 0 0 0 .5 0Z"/></svg>
